X:392
T:B392-  The Roast Beef of Old England
Q:1/4=120
L:1/4
M:6/4
K:D
A|d3/2e/dc2d/e/|fede2d/c/|d3/2e/dc3/2d/c|BE^GA2A|\
BGBd2c/B/|AFDB3|"Chorus"e3/2f/gc3/2B/A|d3A2F|\
G3A3/2d/c|(d3d2)|]

